flaticon/grooming/lotion-3.svg

<svg xmlns="http://www.w3.org/2000/svg" width="32" height="32" viewBox="0 0 24 24">
    <path d="M 23.808594 18.308594 L 23.808594 17.171875 C 23.808594 15.464844 23.074219 13.839844 21.773438 12.699219 C 21.039062 12.074219 20.25 11.449219 19.664062 10.992188 L 19.703125 10.992188 C 20.394531 10.992188 20.921875 10.464844 20.921875 9.773438 C 20.921875 9.082031 20.394531 8.554688 19.703125 8.554688 L 19.703125 8.148438 L 20.109375 8.148438 C 20.351562 8.148438 20.515625 7.988281 20.515625 7.742188 C 20.515625 7.5 20.351562 7.335938 20.109375 7.335938 L 19.703125 7.335938 L 19.703125 6.523438 L 20.109375 6.523438 C 20.351562 6.523438 20.515625 6.359375 20.515625 6.117188 C 20.515625 5.871094 20.351562 5.710938 20.109375 5.710938 L 19.703125 5.710938 L 19.703125 5.460938 C 19.734375 5.40625 19.761719 5.339844 19.785156 5.261719 C 19.785156 4.289062 19.5 3.515625 18.929688 3.027344 C 18.117188 2.335938 17.101562 2.417969 16.898438 2.417969 L 9.582031 2.417969 C 8.402344 2.417969 7.550781 2.175781 7.101562 1.644531 C 6.613281 1.117188 6.695312 0.507812 6.695312 0.46875 C 6.738281 0.304688 6.65625 0.140625 6.535156 0.0625 C 6.371094 -0.0195312 6.207031 -0.0195312 6.085938 0.0625 C 6.003906 0.140625 3.730469 1.484375 3.484375 3.3125 C 3.371094 4.074219 3.652344 4.804688 4.257812 5.460938 L 4.257812 5.710938 L 3.851562 5.710938 C 3.605469 5.710938 3.445312 5.875 3.445312 6.117188 C 3.445312 6.359375 3.605469 6.523438 3.851562 6.523438 L 4.257812 6.523438 L 4.257812 7.335938 L 3.851562 7.335938 C 3.605469 7.335938 3.445312 7.5 3.445312 7.742188 C 3.445312 7.988281 3.605469 8.148438 3.851562 8.148438 L 4.257812 8.148438 L 4.257812 8.554688 C 3.566406 8.554688 3.039062 9.082031 3.039062 9.773438 C 3.039062 10.464844 3.566406 10.992188 4.257812 10.992188 L 4.324219 10.992188 C 3.738281 11.4375 2.957031 12.050781 2.226562 12.699219 C 0.925781 13.796875 0.191406 15.464844 0.191406 17.171875 L 0.191406 18.351562 C 0.191406 18.476562 0.339844 20.804688 1.414062 21.859375 C 1.160156 22.082031 1.007812 22.40625 1.007812 22.78125 C 1.007812 23.472656 1.535156 24 2.226562 24 L 21.734375 24 C 22.425781 24 22.953125 23.472656 22.953125 22.78125 C 22.953125 22.40625 22.796875 22.082031 22.546875 21.859375 C 23.621094 20.800781 23.777344 18.464844 23.808594 18.308594 Z M 4.257812 3.433594 C 4.378906 2.457031 5.3125 1.605469 5.925781 1.160156 C 6.003906 1.441406 6.167969 1.847656 6.453125 2.175781 C 7.0625 2.90625 8.117188 3.273438 9.542969 3.273438 L 16.855469 3.273438 C 16.855469 3.230469 17.710938 3.191406 18.28125 3.679688 C 18.605469 3.960938 18.808594 4.371094 18.847656 4.898438 L 4.828125 4.898438 C 4.421875 4.410156 4.214844 3.921875 4.257812 3.433594 Z M 5.070312 5.710938 L 18.890625 5.710938 L 18.890625 8.554688 L 5.070312 8.554688 Z M 3.851562 9.773438 C 3.851562 9.53125 4.011719 9.367188 4.257812 9.367188 L 19.703125 9.367188 C 19.945312 9.367188 20.109375 9.53125 20.109375 9.773438 C 20.109375 10.019531 19.945312 10.179688 19.703125 10.179688 L 4.257812 10.179688 C 4.011719 10.179688 3.851562 10.019531 3.851562 9.773438 Z M 1.007812 18.308594 L 1.007812 17.171875 C 1.007812 15.667969 1.65625 14.246094 2.753906 13.269531 C 3.851562 12.335938 5.03125 11.441406 5.515625 11.074219 C 5.597656 11.035156 5.679688 10.992188 5.761719 10.992188 L 18.199219 10.992188 C 18.28125 10.992188 18.359375 11.035156 18.441406 11.074219 C 18.929688 11.402344 20.148438 12.335938 21.207031 13.269531 C 22.304688 14.246094 22.953125 15.628906 22.953125 17.132812 L 22.953125 18.269531 C 22.914062 19.121094 22.507812 21.5625 21.328125 21.5625 L 2.632812 21.5625 C 1.453125 21.5625 1.046875 19.121094 1.007812 18.308594 Z M 21.734375 22.375 C 21.976562 22.375 22.140625 22.535156 22.140625 22.78125 C 22.140625 23.023438 21.976562 23.1875 21.734375 23.1875 L 2.226562 23.1875 C 1.980469 23.1875 1.820312 23.023438 1.820312 22.78125 C 1.820312 22.535156 1.980469 22.375 2.226562 22.375 Z M 21.734375 22.375"/>
    <path d="M 11.980469 20.34375 C 14.214844 20.34375 16.042969 18.511719 16.042969 16.277344 C 16.042969 14.042969 14.214844 12.214844 11.980469 12.214844 C 9.746094 12.214844 7.914062 14.042969 7.914062 16.277344 C 7.914062 18.511719 9.746094 20.34375 11.980469 20.34375 Z M 11.980469 13.027344 C 13.769531 13.027344 15.230469 14.488281 15.230469 16.277344 C 15.230469 18.066406 13.769531 19.527344 11.980469 19.527344 C 10.191406 19.527344 8.726562 18.066406 8.726562 16.277344 C 8.726562 14.488281 10.191406 13.027344 11.980469 13.027344 Z M 11.980469 13.027344"/>
</svg>

<svg xmlns="http://www.w3.org/2000/svg" width="32" height="32" viewBox="0 0 24 24">
    <path d="M23.809 18.309v-1.137a5.94 5.94 0 0 0-2.036-4.473 65.756 65.756 0 0 0-2.109-1.707h.04c.69 0 1.218-.527 1.218-1.219 0-.691-.527-1.218-1.219-1.218v-.407h.406c.243 0 .407-.16.407-.406a.385.385 0 0 0-.407-.406h-.406v-.813h.406a.385.385 0 0 0 .407-.406c0-.246-.164-.406-.407-.406h-.406v-.25a.957.957 0 0 0 .082-.2c0-.972-.285-1.745-.855-2.234-.813-.691-1.828-.609-2.032-.609H9.582c-1.18 0-2.031-.242-2.48-.773-.489-.528-.407-1.137-.407-1.176a.38.38 0 0 0-.16-.406c-.164-.083-.328-.083-.45 0-.081.078-2.355 1.421-2.6 3.25-.114.761.167 1.492.773 2.148v.25h-.406c-.247 0-.407.164-.407.406 0 .242.16.406.407.406h.406v.813h-.406c-.247 0-.407.164-.407.406 0 .246.16.406.407.406h.406v.407c-.692 0-1.219.527-1.219 1.218 0 .692.527 1.22 1.219 1.22h.066a36.609 36.609 0 0 0-2.097 1.706C.926 13.797.19 15.465.19 17.172v1.18c0 .125.149 2.453 1.223 3.507a1.206 1.206 0 0 0-.406.922c0 .692.527 1.219 1.219 1.219h19.507c.692 0 1.22-.527 1.22-1.219 0-.375-.157-.699-.407-.922 1.074-1.058 1.23-3.394 1.262-3.55zM4.258 3.434c.12-.977 1.054-1.829 1.668-2.274.078.281.242.688.527 1.016.61.73 1.664 1.097 3.09 1.097h7.312c0-.043.856-.082 1.426.407.324.28.528.691.567 1.218H4.828c-.406-.488-.613-.976-.57-1.464zM5.07 5.71h13.82v2.844H5.07zM3.852 9.773c0-.242.16-.406.406-.406h15.445c.242 0 .406.164.406.406 0 .247-.164.407-.406.407H4.258c-.246 0-.406-.16-.406-.407zM1.008 18.31v-1.137c0-1.504.648-2.926 1.746-3.902a65.077 65.077 0 0 1 2.762-2.196c.082-.039.164-.082.246-.082h12.437c.082 0 .16.043.242.082.489.328 1.707 1.262 2.766 2.196a5.15 5.15 0 0 1 1.746 3.863v1.137c-.039.851-.445 3.293-1.625 3.293H2.633c-1.18 0-1.586-2.442-1.625-3.254zm20.726 4.066c.243 0 .407.16.407.406a.385.385 0 0 1-.407.407H2.227c-.247 0-.407-.165-.407-.407 0-.246.16-.406.407-.406zm0 0"/>
    <path d="M11.98 20.344a4.078 4.078 0 0 0 4.063-4.067 4.074 4.074 0 0 0-4.063-4.062 4.078 4.078 0 0 0-4.066 4.062 4.081 4.081 0 0 0 4.066 4.067zm0-7.317c1.79 0 3.25 1.461 3.25 3.25 0 1.79-1.46 3.25-3.25 3.25a3.26 3.26 0 0 1-3.253-3.25 3.26 3.26 0 0 1 3.253-3.25zm0 0"/>
</svg>
